X: 87
M:C|
L:1/8
K:A
u(3agf|(e>.f)(e>.d)"SEGUE" c>dc>B|(3AcB (3AGF E>FG>A|\
e>fe>d c>dc>B|(3AcB (3AGF E>EF>G|\
(3AGA (3cBA (3Bfe (3dcB|A2 c2 A2H:|
|:uB2|(B>.^A)(B>.e) "SEGUE"g>fe>^d|c>^Bc>f a>gf>e|\
^d>ba>f d>Bc>d|(3egf(3e^dc B2 B2|\
^d>ba>f d>Bc>d|e2 g2 e2:|


